src/assets/icons/flag.svg

<svg viewBox="0 0 56 56" fill="none" xmlns="http://www.w3.org/2000/svg">
<path fill="transparent" d="M13.0662 33.6C13.0662 33.6 14.9329 31.7333 20.5329 31.7333C26.1329 31.7333 29.8662 35.4667 35.4662 35.4667C41.0662 35.4667 42.9329 33.6 42.9329 33.6V11.2C42.9329 11.2 41.0662 13.0667 35.4662 13.0667C29.8662 13.0667 26.1329 9.33334 20.5329 9.33334C14.9329 9.33334 13.0662 11.2 13.0662 11.2V33.6ZM13.0662 33.6V46.6667" stroke="url(#paint0_linear_2420_227)" stroke-width="3" stroke-linecap="round" stroke-linejoin="round"/>
<defs>
<linearGradient id="paint0_linear_2420_227" x1="26.4959" y1="9.33334" x2="26.4959" y2="46.6667" gradientUnits="userSpaceOnUse">
<stop offset="0.0001" stop-color="#ED0189"/>
<stop offset="1" stop-color="#F3293B"/>
</linearGradient>
</defs>
</svg>

<svg xmlns="http://www.w3.org/2000/svg" fill="none" viewBox="0 0 56 56">
  <path fill="transparent" stroke="currentColor" stroke-linecap="round" stroke-linejoin="round" stroke-width="3" d="M13.066 33.6s1.867-1.867 7.467-1.867 9.333 3.734 14.933 3.734 7.467-1.867 7.467-1.867V11.2s-1.867 1.867-7.467 1.867-9.333-3.734-14.933-3.734-7.467 1.867-7.467 1.867v22.4Zm0 0v13.067"/>
</svg>
